X:1
T:Title
%%score { ( 1 3 ) | 2 }
L:1/8
M:4/4
K:F
V:1 treble nm="Grand Piano"
V:3 treble 
V:2 bass 
V:1
 z4 z2 z[Q:1/4=100] C | FFFF F F2 G | AAAA A3 z/ A/ | cccd c A2 G | FFAA [EG]3 C | FFFF F F2 G | %6
 AAAA A3 z/ A/ | cccd cAF[FG] | [FA]2 [EG]>[EG] F4 | c2 c>d c4 | A2 A>B A3 G | FGAB c c2 d | %12
 cAA[CF] [CEG]4 | F2 F>G A4 | A2 A>[GB] [Ac]3 [Fc]/[Fc]/ | [Fd][Fd][Fd][Fd] [Fc] [CFA]3 | %16
[M:7/8] [CFA]2 [B,EG]>[B,EG] [F,A,CF]3 |] %17
V:2
 z4 z2 z [F,A,] | [F,A,C][F,A,C][F,A,E][F,A,D] [F,A,C] [F,A,C]2 [F,B,C] | %2
 [F,CF][F,CF][F,CE][F,CD] [F,CF]3 [F,A,] | [F,A,F][F,G,F][F,A,F][F,B,F] [F,A,F] [F,CF]2 [B,CE] | %4
 [A,C][A,C][F,CF][F,CF] [C,C]3 [F,A,] | [F,A,C][F,A,C][F,A,E][F,A,D] [F,A,C] [F,A,C]2 [F,B,C] | %6
 [F,CF][F,CF][F,CE][F,CD] [F,CF]3 [F,A,] | %7
 [F,A,F][F,G,F][F,A,F][F,B,F] [F,A,F][F,CF][D,=B,][D,B,] | [C,C]2 [C,B,]>[C,B,] [F,A,C]4 | %9
 [F,A,F]2 [F,A,F]>[F,B,F] [F,A,F]4 | [F,CF]2 [F,CF]>[F,DF] [F,CF]3 [B,CE] | %11
 [A,C][G,CE][F,CF][F,CG] [F,A,F] [F,A,F]2 [F,B,F] | [F,A,F][F,CF][F,CF]A,, C,4 | %13
 [F,A,C]2 [F,A,C]>[F,B,C] [F,CF]4 | [F,CF]2 [F,CF]>[F,C] [F,F]3 [F,A,]/[F,A,]/ | %15
 [B,,B,][C,B,][D,B,][B,,B,] [F,A,] F,3 |[M:7/8] C,2 C,>C, F,,3 |] %17
V:3
 x8 | x8 | z4 z2 z F | x8 | x8 | x8 | z4 z2 z F | x8 | x8 | x8 | x8 | x8 | x8 | x8 | x8 | x8 | %16
[M:7/8] x7 |] %17

